X:1
T:Iphigenie in Aulis
T:Festgesang
T:Christoph Willibald Gluck
T:Festgesang
T:Nach dem Chor Welch ein Reiz, welche Majestät aus der Oper Iphigenie in Aulis
T:CPDL   —   Creative Commons Attribution Non Commercial 3.0
T:CPDL   —   Creative Commons Attribution Non Commercial 3.0
T:CPDL   —   Creative Commons Attribution Non Commercial 3.0
T:CPDL   —   Creative Commons Attribution Non Commercial 3.0
T:CPDL   —   Creative Commons Attribution Non Commercial 3.0
T:CPDL   —   Creative Commons Attribution Non Commercial 3.0
C:Christoph Willibald Gluck
Z:CPDL   —   Creative Commons Attribution Non Commercial 3.0
%%score [ 1 2 3 4 ]
L:1/8
Q:1/4=96
M:3/4
K:C
V:1 treble nm="Sopran"
V:2 treble nm="Alt"
V:3 treble-8 nm="Tenor"
V:4 bass nm="Bass"
V:1
"^Mit Anmut und Würde"!mf!"^Tutti"!<(! G4 c2!<)! |!>(! c4 B2!>)! |!<(! (G2 B2) d2!<)! | %3
w: Freu- den-|klän- ge!|Fest- * ge-|
!>(! d4 c2!>)! |!<(! G4 e2!<)! | e4!f! dd | !>!f>e!>(! d2 c2!>)! | B4 z2 |!p!!<(! G4 c2!<)! | %9
w: sän- ge!|Rauscht em-|por, rauscht em-|por zum Him- mels-|zelt!|Von der|
!>(! c4 B2!>)! |!<(! (G2 B2) d2!<)! |!>(! d4 c2!>)! |"^cresc." G4 e2 | e4 d2 | !>!f>e d2!>(! c2 | %15
w: Sor- ge|los- * ge-|run- gen,|von der|Freund- schaft|treu und fest um-|
 c4!>)! B2 |!f! g4 B2 |"^cresc." c4 e2 | g4!>(! B2!>)! | c6 |!mf!!<(! B4 d2!<)! | (c2 f2)!f! e2 | %22
w: schlun- gen,|steh'n wir|fröh- lich|Hand in|Hand,|sin- gen|freu- * dig|
 (d2 c2) B2 |!>(! e4 c2!>)! |!<(! B4 f2!<)! |!ff! (e2 a2) g2 | (f2 e2)!>(! d2 | c4!>)! z2 | %28
w: uns'- * re|Lie- der,|prei- sen|Gott _ und|Va- * ter-|land!|
!f!!<(! f4 e2!<)! | f4!ff! !>!.e!>!.c | !>!.f>!>!.d !^!c2 !^!d2 | !^!e4 z2 |!f!!<(! f4 e2!<)! | %33
w: Rauscht em-|por, Fest- ge-|sän- ge rauscht em-|por,|rauscht em-|
 f4!ff! !>!.e!>!.c | !>!.f>!>!.d c2!>(! d2 | !fermata!c4!>)! z2!fine! ||!p!"^Soli"!<(! A4 B2!<)! | %37
w: por, rauscht em-|por zum Him- mels-|zelt!|Heh- re|
!>(! B4 c2!>)! |!p!!<(! A4 B2!<)! |!>(! B4 c2!>)! |!<(! (e3 f) e2!<)! | (e2 d2) c2 | %42
w: Stun- de!|Un- ser'm|Bun- de|brin- * ge|Se- * gen|
!>(! c4 B2!>)! | B4 z2 |!p! (d3 c) B2 | A4 ^F2 |!<(! (c2 B2) A2!<)! |!>(! B4 G2!>)! | %48
w: und Ge-|deih'n!|Der _ dort|o- ben|fest _ ge-|wo- ben|
!p! (d3 c) B2 | A4 ^F2 |!<(! (c2 B2) A2!<)! |!>(! B6!>)! |!<(! (G2 B2) d2!<)! | %53
w: des _ Ge-|san- ges|Zau- * ber-|band,|er, _ der|
!>(! (e2 c2) A2!>)! |!<(! (A3 B) c2!<)! |!>(! d4 B2!>)! |!<(! (G2 B2) d2!<)! | (e2!>(! c2) A2!>)! | %58
w: Herr, _ blickt|freund- * lich|nie- der,|auf _ der|Sän- * ger|
!<(! (A3 B)!<)! c2 |!>(! d4!>)! B2 |!mf!!<(! d4 d2!<)! |!f! e4 e2 | A4 A2 |!>(! d4!>)! z2 | %64
w: Ju- * bel-|lie- der,|prei- send|Gott und|Va- ter-|land,|
!f![Q:1/4=88]"^rit." (g2 d2) G2 | e4 A2 | c4!>(! ^F2 | !fermata!G6!>)!!D.C.! |] %68
w: prei- * send|Gott und|Va- ter-|land!|
V:2
!mf! E4 G2 | G4 G2 | G4 G2 | G4 G2 | G4 G2 | A4!f! AA | !>!A>A A2 A2 | G4 z2 |!p! E4 G2 | G4 G2 | %10
 G4 G2 | G4 G2 | G4 G2 | A4 A2 | !>!A>A A2 A2 | A4 G2 |!f! G4 G2 | G4 G2 | G4 G2 | G6 |!mf! G4 G2 | %21
 G4!f! G2 | (A2 G2) G2 | G4 G2 | G4 G2 |!ff! c4 c2 | (A2 c2) GF | E4 z2 |!f! G4 G2 | %29
 G4!ff! !>!.G!>!.G | !>!.A>!>!.A !^!G2 !^!G2 | !^!G4 z2 |!f! G4 G2 | G4!ff! !>!.G!>!.G | %34
 !>!.A>!>!.A G2 F2 | !fermata!E4 z2 ||!p! F4 D2 | D4 E2 |!p! F4 D2 | D4 E2 | (G3 A) G2 | %41
 (G2 F2) E2 | E4 D2 | D4 z2 |!p! G4 G2 | A4 A2 | (A2 G2) ^F2 | G4 G2 |!p! G4 G2 | A4 A2 | %50
 (A2 G2) ^F2 | G6 | G4 G2 | G4 G2 | (^F3 G) A2 | B4 G2 | G4 G2 | G4 G2 | (^F3 G) A2 | B4 G2 | %60
!mf! G4 G2 |!f! G4 G2 | ^F4 F2 | G4 z2 |!f! G4 G2 | G4 G2 | ^F4 D2 | !fermata!D6 |] %68
V:3
!mf!!<(! c4 c2!<)! |!>(! e4 d2!>)! |!<(! d4 f2!<)! |!>(! f4 e2!>)! |!<(! e4 c2!<)! | A4!f! AA | %6
w: Freu- den-|klän- ge!|Fest- ge-|sän- ge!|Rauscht em-|por, rauscht em-|
 !>!d>^c!>(! d2 d2!>)! | d4 z2 |!p!!<(! c4 c2!<)! |!>(! e4 d2!>)! |!<(! d4 f2!<)! |!>(! f4 e2!>)! | %12
w: por zum Him- mels-|zelt!|Von der|Sor- ge|los- ge-|run- gen,|
"^cresc." e4 c2 | A4 A2 | !>!d>^c d2!>(! d2 | d4!>)! d2 |!f! d4 f2 |"^cresc." e4 e2 | %18
w: von der|Freund- schaft|treu und fest um-|schlun- gen,|steh'n wir|fröh- lich|
 d4!>(! f2!>)! | e6 |!mf!!<(! d4 B2!<)! | (c2 d2)!f! e2 | (f2 e2) d2 |!>(! c4 e2!>)! | %24
w: Hand in|Hand,|sin- gen|freu- * dig|uns'- * re|Lie- der,|
!<(! f4 d2!<)! |!ff! (g2 f2) e2 | (d2 c2)!>(! B2 | c4!>)! z2 |!f!!<(! d4 e2!<)! | %29
w: prei- sen|Gott _ und|Va- * ter-|land!|Rauscht em-|
 d4!ff! !>!.c!>!.e | !>!.d>!>!.d !^!e2 !^!B2 | !^!c4 z2 |!f!!<(! d4 e2!<)! | d4!ff! !>!.c!>!.e | %34
w: por, Fest- ge-|sän- ge rauscht em-|por,|rauscht em-|por, rauscht em-|
 !>!.d>!>!.d e2!>(! B2 | !fermata!c4!>)! z2 ||!p!!<(! c4 c2!<)! |!>(! c4 c2!>)! | %38
w: por zum Him- mels-|zelt!|Heh- re|Stun- de!|
!p!!<(! c4 c2!<)! |!>(! c4 c2!>)! |!<(! c4 c2!<)! | c4 c2 |!>(! G4 G2!>)! | G4 z2 |!p! d4 d2 | %45
w: Un- ser'm|Bun- de|brin- ge|Se- gen|und Ge-|deih'n!|Der dort|
 d4 d2 |!<(! d4 d2!<)! |!>(! d4 B2!>)! |!p! d4 d2 | d4 d2 |!<(! d4 d2!<)! |!>(! d6!>)! | %52
w: o- ben|fest ge-|wo- ben|des Ge-|san- ges|Zau- ber-|band,|
!<(! (B2 d2) =f2!<)! |!>(! e4 e2!>)! |!<(! d4 d2!<)! |!>(! B4 d2!>)! |!<(! (B2 d2) =f2!<)! | %57
w: er, _ der|Herr, blickt|freund- lich|nie- der,|auf _ der|
 e4!>(! e2!>)! |!<(! d4!<)! d2 |!>(! B4!>)! d2 |!mf!!<(! d4 =f2!<)! |!f! e4 e2 | d4 d2 | %63
w: Sän- ger|Ju- bel-|lie- der,|prei- send|Gott und|Va- ter-|
!>(! d4!>)! z2 |!f! d4 =f2 | e4 e2 | d4!>(! c2 | !fermata!B6!>)! |] %68
w: land,|prei- send|Gott und|Va- ter-|land!|
V:4
!mf! C,4 E,2 | G,4 G,2 | (B,2 G,2) B,2 | C4 C,2 | C4 C,2 | F,4!f! F,F, | !>!D,>E, F,2 ^F,2 | %7
 G,4 z2 |!p! C,4 E,2 | G,4 G,2 | (B,2 G,2) B,2 | C4 C,2 | C4 C,2 | F,4 F,2 | !>!D,>E, F,2 ^F,2 | %15
 G,4 G,2 |!f! B,4 D2 | (C2 G,2) C2 | B,4 D2 | C6 |!mf! G,4 F,2 | (E,2 D,2)!f! C,2 | (F,2 G,2) G,2 | %23
 C,4 C2 | D4 B,2 |!ff! C4 C,2 | (F,2 G,2) G,2 | C,4 z2 |!f! B,4 C2 | B,4!ff! !>!.C!>!.E, | %30
 !>!.F,>!>!.F, !^!G,2 !^!G,2 | !^!C,4 z2 |!f! B,4 C2 | B,4!ff! !>!.C!>!.E, | %34
 !>!.F,>!>!.F, G,2 [G,,G,]2 | !fermata!C,4 z2 || z6 | z6 | z6 | z6 | z6 | z6 | z6 | z6 | %44
!p!"^Soli" (B,3 A,) G,2 | ^F,4 D,2 | D,4 D,2 | G,4 G,2 |!p! (B,3 A,) G,2 | ^F,4 D,2 | D,4 D,2 | %51
 G,6 | G,4 B,2 | (C2 A,2) C2 | D4 D,2 | G,4 G,2 | G,4 B,2 | (C2 A,2) C2 | D4 D,2 | G,4 G,2 | %60
!mf! B,4 B,2 |!f! C4 C2 | C4 C2 | B,4 z2 |!f! B,4 G,2 | C4 C,2 | D,4 D,2 | !fermata!G,6 |] %68

